symbols/web/electric_rickshaw/materialsymbolssharp/electric_rickshaw_wght500fill1_48px.svg

<svg xmlns="http://www.w3.org/2000/svg" height="48" width="48"><path d="M11.6 34.4q-2.2 0-3.9-1.35Q6 31.7 5.55 29.6H1.8V5.7h31.4l9.45 12.25v4.6q1.65.8 2.6 2.325.95 1.525.95 3.375 0 2.6-1.8 4.375T40 34.4q-2.2 0-3.85-1.375T33.9 29.6H17.65q-.6 2.05-2.225 3.425T11.6 34.4ZM5.2 17.6h9.3V9.15H5.2Zm12.3 8.55h11.8v-17H17.5v8.45h7.05v3H17.5Zm14.8-7.7h6.2l-6.2-7.95ZM11.6 31.3q1.3 0 2.175-.9.875-.9.875-2.2 0-1.25-.875-2.125T11.6 25.2q-1.3 0-2.175.875-.875.875-.875 2.175 0 1.3.875 2.175.875.875 2.175.875Zm28.4 0q1.3 0 2.175-.9.875-.9.875-2.2 0-1.25-.875-2.125T40 25.2q-1.3 0-2.175.875-.875.875-.875 2.175 0 1.3.9 2.175.9.875 2.15.875ZM25.95 46.1 14 39.95h8.2v-3.8l11.95 5.8h-8.2Z"/></svg>

<svg xmlns="http://www.w3.org/2000/svg" height="48" width="48"><path d="M11.6 34.4Q9.4 34.4 7.7 33.05Q6 31.7 5.55 29.6H1.8V5.7H33.2L42.65 17.95V22.55Q44.3 23.35 45.25 24.875Q46.2 26.4 46.2 28.25Q46.2 30.85 44.4 32.625Q42.6 34.4 40 34.4Q37.8 34.4 36.15 33.025Q34.5 31.65 33.9 29.6H17.65Q17.05 31.65 15.425 33.025Q13.8 34.4 11.6 34.4ZM5.2 17.6H14.5V9.15H5.2ZM17.5 26.15H29.3V9.15H17.5V17.6H24.55V20.6H17.5ZM32.3 18.45H38.5L32.3 10.5ZM11.6 31.3Q12.9 31.3 13.775 30.4Q14.65 29.5 14.65 28.2Q14.65 26.95 13.775 26.075Q12.9 25.2 11.6 25.2Q10.3 25.2 9.425 26.075Q8.55 26.95 8.55 28.25Q8.55 29.55 9.425 30.425Q10.3 31.3 11.6 31.3ZM40 31.3Q41.3 31.3 42.175 30.4Q43.05 29.5 43.05 28.2Q43.05 26.95 42.175 26.075Q41.3 25.2 40 25.2Q38.7 25.2 37.825 26.075Q36.95 26.95 36.95 28.25Q36.95 29.55 37.85 30.425Q38.75 31.3 40 31.3ZM25.95 46.1 14 39.95H22.2V36.15L34.15 41.95H25.95Z"/></svg>
